!!!!SEGMENT: erk002.krn
!!!OTL@@DE: Der Liebe Seligkeit
!!!ONB: Neueres Volkslied
!!!CDT: 1810
!!!OMD: Andantino
!!!OCL: Erk, Ludwig
!!!GCO: Deutscher Liederschatz, Band 1
**kern	**kern	**kern
*Ipiano	*Ipiano	*Ivox
*staff3	*staff2	*staff1
*clefF4	*clefG2	*clefG2
*k[b-]	*k[b-]	*k[b-]
*F:	*F:	*F:
*M6/8	*M6/8	*M6/8
*MM94	*MM94	*MM94
8r	8r	8c
=1	=1	=1
4FF	8r	8.a
.	8A 8cL	.
.	.	16g
8r	8A 8c 8fJ	8f
*	*	*^
4AA	8r	8fL	8f
.	8c 8eL	8eJ	8e
8r	8c 8fJ	8f	8f
*	*	*v	*v
=2	=2	=2
4.C	8r	4.g
.	8c 8e 8gL	.
.	8e 8g 8ccJ	.
4r	8g 8cc 8eeL	4r
.	8e 8g 8cc	.
8r	8c 8e 8gJ	8c
=3	=3	=3
*	*	*^
4C	8r	8.b-	8.b-L
.	8c 8eL	.	.
.	.	16a	16aJk
8r	8c 8e 8gJ	8g	8g
4E	8r	8g	8gL
.	8c 8gL	8cc	8ccJ
8r	8c 8g 8b-J	8b-	8b-
*	*	*v	*v
=4	=4	=4
4.F	8r	4.a
.	8c 8f 8aL	.
.	8f 8a 8ccJ	.
4r	8a 8cc 8ffL	4r
.	8f 8a 8cc	.
8r	8c 8f 8aJ	8cc
=5	=5	=5
*	*	*^
4F	8r	8.cc	8.cc
.	8A 8c 8fL	.	.
.	.	16b-	16b-
8r	8c 8f 8aJ	8a	8a
*	*	*	*^
4E-	8r	4.ryy	8a	8aL
.	8F 8A 8cL	.	8g	8gJ
8r	8A 8c 8fJ	.	8f	8f
*	*	*v	*v	*v
=6	=6	=6
4D	8r	(4b-
.	8B- 8d 8fL	.
8r	8d 8f 8b-J	8dd
4BB-	8r	8ffL
.	8B- 8d 8fL	8eeJ)
8r	8d 8f 8b-J	8dd
=7	=7	=7
*	*	*^
4C	8r	8.ccL	8.cc
.	8A 8c 8fL	.	.
.	.	16ddJk	16dd
8r	8c 8f 8aJ	8cc	8cc
4CC 4C	8r	8ccL	8cc
.	8B- 8c 8eL	8b-J	8b-
8r	8B- 8c 8e 8gJ	8g	8g
*	*	*v	*v
=8	=8	=8
[4.FF [4.F	8r	4.f
.	8A 8c 8fL	.
.	8c 8f 8aJ	.
4FF] 4F]	4A 4c 4f	4r
==	==	==
*-	*-	*-
!!!system-decoration: s1{(s2,s3)}
!!!ENC: Craig Stuart Sapp
!!!END: 2004/05/17/
!!!EFL: 002/651
